src/lib/packages/icons/src/assets/line/shoes-running.svg

<svg width="24" height="24" viewBox="0 0 24 24" fill="none" xmlns="http://www.w3.org/2000/svg">
<path d="M17.49 12.2499L15.1599 7.03993C14.9299 6.52993 14.37 6.22994 13.81 6.31994C10.15 6.90994 9.55996 4.65993 9.16996 3.16993L9.09 2.86993C9.05 2.71993 8.89 2.34993 8.34 2.25993C7.63 2.13993 6.50996 2.53994 5.72996 3.68994L1.66996 10.0199C0.899959 11.2299 1.19 12.8399 2.34 13.6999L12.32 21.1899C12.79 21.5399 13.3799 21.7399 13.9699 21.7399H20.49C21.73 21.7399 22.74 20.7299 22.74 19.4899V17.6699C22.74 14.7299 20.39 12.3299 17.48 12.2499H17.49ZM6.99998 4.51994C7.26998 4.10994 7.57996 3.90994 7.79996 3.81994C8.20996 5.32994 9.30997 8.47994 13.87 7.82994L14.17 8.48994H12.01C11.6 8.48994 11.26 8.82994 11.26 9.23994C11.26 9.64994 11.6 9.98994 12.01 9.98994H14.85L15.3 10.9899H13.02C12.61 10.9899 12.27 11.3299 12.27 11.7399C12.27 12.1499 12.61 12.4899 13.02 12.4899H15.9699L16.2 12.9999C16.4 13.4499 16.85 13.7399 17.34 13.7399C19.36 13.7399 21.0099 15.2799 21.2199 17.2399H14.99C14.72 17.2399 14.46 17.1499 14.24 16.9899L3.96 9.27993L7.00999 4.51994H6.99998ZM20.51 20.2499H13.99C13.72 20.2499 13.45 20.1599 13.24 19.9999L3.25999 12.5099C2.73999 12.1199 2.61 11.3799 2.96 10.8399L3.13999 10.5499L13.33 18.1999C13.8 18.5499 14.39 18.7499 14.98 18.7499H21.25V19.4999C21.25 19.9099 20.91 20.2499 20.5 20.2499H20.51ZM9.75999 20.9999C9.75999 21.4099 9.41999 21.7499 9.00999 21.7499H2.00999C1.59999 21.7499 1.25999 21.4099 1.25999 20.9999C1.25999 20.5899 1.59999 20.2499 2.00999 20.2499H9.00999C9.41999 20.2499 9.75999 20.5899 9.75999 20.9999ZM1.25999 17.4999C1.25999 17.0899 1.59999 16.7499 2.00999 16.7499H4.00999C4.41999 16.7499 4.75999 17.0899 4.75999 17.4999C4.75999 17.9099 4.41999 18.2499 4.00999 18.2499H2.00999C1.59999 18.2499 1.25999 17.9099 1.25999 17.4999Z" fill="currentColor"/>
</svg>

<svg xmlns="http://www.w3.org/2000/svg" width="24" height="24" fill="none"><path fill="currentColor" d="m17.49 12.25-2.33-5.21c-.23-.51-.79-.81-1.35-.72-3.66.59-4.25-1.66-4.64-3.15l-.08-.3c-.04-.15-.2-.52-.75-.61-.71-.12-1.83.28-2.61 1.43l-4.06 6.33c-.77 1.21-.48 2.82.67 3.68l9.98 7.49c.47.35 1.06.55 1.65.55h6.52c1.24 0 2.25-1.01 2.25-2.25v-1.82c0-2.94-2.35-5.34-5.26-5.42h.01ZM7 4.52c.27-.41.58-.61.8-.7.41 1.51 1.51 4.66 6.07 4.01l.3.66h-2.16c-.41 0-.75.34-.75.75s.34.75.75.75h2.84l.45 1h-2.28c-.41 0-.75.34-.75.75s.34.75.75.75h2.95l.23.51c.2.45.65.74 1.14.74 2.02 0 3.67 1.54 3.88 3.5h-6.23c-.27 0-.53-.09-.75-.25L3.96 9.28l3.05-4.76H7Zm13.51 15.73h-6.52c-.27 0-.54-.09-.75-.25l-9.98-7.49c-.52-.39-.65-1.13-.3-1.67l.18-.29 10.19 7.65c.47.35 1.06.55 1.65.55h6.27v.75c0 .41-.34.75-.75.75h.01ZM9.76 21c0 .41-.34.75-.75.75h-7c-.41 0-.75-.34-.75-.75s.34-.75.75-.75h7c.41 0 .75.34.75.75Zm-8.5-3.5c0-.41.34-.75.75-.75h2c.41 0 .75.34.75.75s-.34.75-.75.75h-2c-.41 0-.75-.34-.75-.75Z"/></svg>
